icons/sound-module-line.svg

<svg xmlns="http://www.w3.org/2000/svg" viewBox="0 0 24 24">
    <g>
        <path fill="none" d="M0 0h24v24H0z"/>
        <path d="M21 18v3h-2v-3h-2v-2h6v2h-2zM5 18v3H3v-3H1v-2h6v2H5zm6-12V3h2v3h2v2H9V6h2zm0 4h2v11h-2V10zm-8 4V3h2v11H3zm16 0V3h2v11h-2z"/>
    </g>
</svg>

<svg viewBox="0 0 24 24" fill="currentColor" xmlns="http://www.w3.org/2000/svg"><path d="M21 18V21H19V18H17V16H23V18H21ZM5 18V21H3V18H1V16H7V18H5ZM11 6V3H13V6H15V8H9V6H11ZM11 10H13V21H11V10ZM3 14V3H5V14H3ZM19 14V3H21V14H19Z"/></svg>
